X:1
T:He Was Not Willing
T:Lucy Jane Rider Meyer (1984-1922)
T:He Was Not Willing
T:Public Domain
T:Public Domain
T:Public Domain
C:Lucy Jane Rider Meyer (1984-1922)
Z:Public Domain
%%score ( 1 2 ) 3
L:1/8
M:6/8
K:Eb
V:1 treble 
V:2 treble 
V:3 bass 
V:1
 [EG]>[EG][EG] [EG][EG][EG] | [EA]>[EA][EA] [EG]2 E | [GB]>[GB][GB] [GB][GB][GB] | %3
w: 1.~“He was not will- ing that|an- y should per- ish”;|sus en- throned in the glo-|
w: 2.~“He was not will- ing that|an- y should per- ish”;|in our flesh with its sor-|
w: 3.~Plen- ty for plea- sure, but|lit- tle for Je- sus;|for the world with its trou-|
w: 4.~“He was not will- ing that|an- y should per- ish”;|I His fol- low- er, and|
 [Ac][GB][EG] [DF]3 | [EG]>[EG][EG] [EG][EG][EG] | [EA]>[EA][EA] [EG]2 E | %6
w: ry a- bove, Saw|our poor fall- en world, pi-|tied our sor- rows, Poured|
w: row and pain, Came|He to seek the lost, com-|fort the mourn- er, Heal|
w: bles and toys, No|time for Je- sus’ work, feed-|ing the hun- gry, Lift-|
w: can I live Long-|er at ease with a soul|go- ing down- ward, Lost|
 [GB]>[GB][GB] [Ac][GB][EG] | E[EG][DF] E3 | [Ec]>[Ec][Ec] [Gc][Gc][Gc] | %9
w: His life for us, won- der-|ful love! Per- ish-|ish- ing! Throng- ing our path-|
w: heart brok- en by sor- row|and shame. Per- ish-|ish- ing! Har- vest is pass-|
w: lost souls to e- ter- ni-|ty’s joys. Per- ish-|ish- ing! Hark, how they call|
w: the lack of the help I|might give! Per- ish-|ish- ing! Thou wast not will-|
 [EG]>[EG][EG] [DG]2 [DG] | [DB]>[DB][DB] [DB][DB][DB] | [EF]>[EG][E=A] [DB]3 | %12
w: way, Hearts break with bur-|dens too heav- y to bear:|Je- sus would save,|
w: ing, Reap- ers are few|and the night draw- eth near:|Je- sus is call-|
w: us; Bring us your Sav-|ior, oh, tell us of Him!|We are so wear-|
w: ing; Mas- ter, for- give,|and in- spire us a- new;|Ban- ish our world-|
 [EG]>[EG][EG] [EG][EG][EG] | [EA]>[EA][EA] [EG]2 E | [GB]>[GB][GB] [Ac][GB][EG] | E[EG][DF] E2 |] %16
w: but there’s no one to tell|them, No one to lift|from sin and des- pair. *||
w: ing thee, haste to the reap-|ing, Thou shalt have souls,|cious souls for thy hire. *||
w: y, so heav- i- ly la-|den, And with long weep-|our eyes have grown dim. *||
w: li- ness, help us to ev-|er Live with e- ter-|ty’s val- ues in view. *||
V:2
 x6 | x5 E | x6 | x6 | x6 | x5 E | x6 | E x E3 x | x6 | x6 | x6 | x6 | x6 | x5 E | x6 | E x E2 x |] %16
w: |Je-||||out||ing, per-||||||them|||
w: |Clothed||||the||ing, per-||||||pre-|||
w: |Time||||ing||ing, per-||||||ing|||
w: |Am||||for||ing, per-||||||ni-|||
V:3
 [E,B,]>[E,B,][E,B,] [E,B,][E,B,][E,B,] | [E,C]>[E,C][E,C] [E,B,]2 [E,G,] | %2
 [E,E]>[E,E][E,E] [E,E][E,E][E,E] | [E,E][E,E][E,B,] [B,,B,]3 | %4
 [E,B,]>[E,B,][E,B,] [E,B,][E,B,][E,B,] | [E,C]>[E,C][E,C] [E,B,]2 [E,G,] | %6
 [E,E]>[E,E][E,E] [E,E][E,E][E,B,] | [B,,G,][B,,B,][B,,A,] [E,G,]3 | %8
 [C,G,]>[C,G,][C,G,] [E,C][E,C][E,C] | [G,C]>[G,C][G,C] [G,=B,]2 [G,B,] | %10
 [F,B,]>[F,B,][F,B,] [F,B,][F,B,][F,B,] | [F,=A,]>[F,B,][F,C] [B,,B,]3 | %12
 [E,B,]>[E,B,][E,B,] [E,B,][E,B,][E,B,] | [E,C]>[E,C][E,C] [E,B,]2 [E,G,] | %14
 [E,E]>[E,E][E,E] [E,E][E,E][E,B,] | [B,,G,][B,,B,][B,,A,] [E,G,]2 |] %16

